icons/china-railway-fill.svg

<svg xmlns="http://www.w3.org/2000/svg" width="24" height="24" fill="none"><g clip-path="url(#a)"><g><path fill="#121212" d="M11 19V13L8.99998 12V9H15V12L13 13V19L18 20V22H5.99998V20L11 19ZM9.99998 2.223V1H14V2.223C15.7154 2.61467 17.2784 3.50043 18.4959 4.77078C19.7133 6.04113 20.5319 7.64039 20.8503 9.37088C21.1687 11.1014 20.973 12.8873 20.2875 14.5078C19.602 16.1283 18.4566 17.5124 16.993 18.489L15.883 16.825C17.1329 15.9915 18.0815 14.7781 18.5886 13.3639C19.0957 11.9498 19.1344 10.41 18.699 8.97221C18.2636 7.53439 17.3772 6.27479 16.1707 5.37958C14.9642 4.48437 13.5018 4.00105 11.9995 4.00105C10.4972 4.00105 9.03472 4.48437 7.82826 5.37958C6.6218 6.27479 5.73536 7.53439 5.29994 8.97221C4.86452 10.41 4.90323 11.9498 5.41034 13.3639C5.91746 14.7781 6.86607 15.9915 8.11598 16.825L7.00698 18.489C5.54335 17.5124 4.39799 16.1283 3.71245 14.5078C3.02692 12.8873 2.83127 11.1014 3.14969 9.37088C3.4681 7.64039 4.28663 6.04113 5.50409 4.77078C6.72155 3.50043 8.28458 2.61467 9.99998 2.223Z"/></g></g><defs><clipPath id="a"><rect width="24" height="24" fill="white"/></clipPath></defs></svg>

<svg width="24" height="24" fill="none" xmlns="http://www.w3.org/2000/svg"><g clip-path="url(#a)"><path d="M11 19v-6l-2-1V9h6v3l-2 1v6l5 1v2H6v-2l5-1ZM10 2.223V1h4v1.223a9.003 9.003 0 0 1 2.993 16.266l-1.11-1.664a7 7 0 1 0-7.767 0l-1.109 1.664A9.003 9.003 0 0 1 10 2.223Z" /></g><defs><clipPath id="a"><path fill="#fff" d="M0 0h24v24H0z"/></clipPath></defs></svg>
